X:89
T:89. RH Pocket: Scalar Run
T:Use for transitions between chord changes — fast scale run
C:RH ascending eighth-note scale; LH whole-note anchor
M:4/4
L:1/8
Q:1/4=104
%%score {V1 V2}
V:V1 clef=treble
V:V2 clef=bass
K:C
[V:V1] "C" c d e f g a b c' | "F" f g a b c' d' e' f' | "G" g a b c' d' e' f' g' | "C" c' b a g f e d c |]
[V:V2] C,8 | F,8 | G,8 | C,8 |]

